packages/foundations/assets/icons/functional/images/audio & video/skip_backward_64.svg

<svg width="64" height="64" viewBox="0 0 64 64" fill="none" xmlns="http://www.w3.org/2000/svg">
<g clip-path="url(#clip0_2202_544)">
<path fill-rule="evenodd" clip-rule="evenodd" d="M44.1255 12.764L20.3575 28.389C19.7804 28.7972 19.3103 29.3386 18.987 29.9672C18.6637 30.5958 18.4968 31.2931 18.5005 32C18.5005 33.458 19.1885 34.778 20.3575 35.611L44.1255 51.236C44.8825 51.722 45.7755 52 46.6695 52C49.0755 52 50.9995 49.986 50.9995 47.556V16.444C51.0005 14.014 49.0765 12 46.6705 12C45.7765 12 44.8825 12.278 44.1255 12.764ZM48.0005 16.444V47.556C48.0005 48.364 47.3845 49 46.6695 49C46.4215 49 46.1725 48.981 45.7495 48.714C37.7606 43.6694 29.8653 38.4782 22.0675 33.143C21.5975 32.826 21.5005 32.428 21.5005 32C21.5005 31.572 21.5985 31.173 22.0675 30.856L45.7475 15.288C45.9895 15.132 46.2005 15 46.6695 15C47.3425 15 48.0005 15.5 48.0005 16.444ZM13.0005 13.5V50.5C13.0005 50.8978 13.1585 51.2794 13.4398 51.5607C13.7211 51.842 14.1027 52 14.5005 52C14.8983 52 15.2799 51.842 15.5612 51.5607C15.8425 51.2794 16.0005 50.8978 16.0005 50.5V13.5C16.0005 13.1022 15.8425 12.7206 15.5612 12.4393C15.2799 12.158 14.8983 12 14.5005 12C14.1027 12 13.7211 12.158 13.4398 12.4393C13.1585 12.7206 13.0005 13.1022 13.0005 13.5Z" fill="#1A1C1F"/>
</g>
<defs>
<clipPath id="clip0_2202_544">
<rect width="64" height="64" fill="white"/>
</clipPath>
</defs>
</svg>

<svg xmlns="http://www.w3.org/2000/svg" width="64" height="64" fill="none"><g clip-path="url(#a)"><path fill="#1A1C1F" fill-rule="evenodd" d="M44.126 12.764 20.358 28.389A4.4 4.4 0 0 0 18.5 32c0 1.458.689 2.778 1.858 3.611l23.768 15.625c.757.486 1.65.764 2.544.764 2.405 0 4.33-2.014 4.33-4.444V16.444C51 14.014 49.076 12 46.67 12c-.894 0-1.788.278-2.544.764M48 16.444v31.112C48 48.364 47.385 49 46.67 49c-.248 0-.498-.019-.92-.286a770 770 0 0 1-23.682-15.571c-.47-.317-.568-.715-.568-1.143s.099-.827.567-1.144l23.68-15.568c.242-.156.453-.288.922-.288.674 0 1.332.5 1.332 1.444M13 13.5v37a1.5 1.5 0 1 0 3 0v-37a1.5 1.5 0 1 0-3 0" clip-rule="evenodd"/></g><defs><clipPath id="a"><path fill="#fff" d="M0 0h64v64H0z"/></clipPath></defs></svg>
